img/Client1.svg

<svg width="175" height="90" viewBox="0 0 175 90" fill="none" xmlns="http://www.w3.org/2000/svg">
<rect x="0.5" y="0.5" width="174" height="89" rx="3.5" stroke="#AFB1B8"/>
<path d="M71 21L78.3076 27.7025H98.6924V46.3993L106 53.1018V21H71Z" fill="#AFB1B8"/>
<path d="M65 27.4202V58.605H99V46.2093L78.5231 27.4279L65 27.4202ZM92.5231 54.0434H70.3801V33.07H71.9453V52.6232H92.5231V54.0434Z" fill="#AFB1B8"/>
<path d="M74.791 64.4863L75.6089 62.8018H76.2925L75.1011 65.0479V66.3564H74.481V65.0479L73.2871 62.8018H73.9731L74.791 64.4863ZM78.3018 65.5288H76.9248L76.6367 66.3564H75.9946L77.3374 62.8018H77.8916L79.2368 66.3564H78.5923L78.3018 65.5288ZM77.0981 65.0308H78.1284L77.6133 63.5562L77.0981 65.0308ZM80.7358 65.397C80.7358 65.2326 80.7806 65.082 80.8701 64.9453C80.9596 64.807 81.1362 64.6434 81.3999 64.4546C81.2616 64.2804 81.1647 64.1323 81.1094 64.0103C81.0557 63.8882 81.0288 63.7702 81.0288 63.6562C81.0288 63.3779 81.1134 63.1582 81.2827 62.9971C81.452 62.8343 81.6799 62.7529 81.9663 62.7529C82.2251 62.7529 82.4367 62.8294 82.6011 62.9824C82.7671 63.1338 82.8501 63.3218 82.8501 63.5464C82.8501 63.6945 82.8127 63.8312 82.7378 63.9565C82.6629 64.0802 82.54 64.2039 82.3691 64.3276L82.1274 64.5034L82.8135 65.314C82.9128 65.1187 82.9624 64.9014 82.9624 64.6621H83.4775C83.4775 65.0999 83.375 65.4588 83.1699 65.7388L83.6924 66.3564H83.0039L82.8037 66.1196C82.5498 66.3101 82.2471 66.4053 81.8955 66.4053C81.5439 66.4053 81.2624 66.3125 81.0508 66.127C80.8408 65.9398 80.7358 65.6965 80.7358 65.397ZM81.9126 65.9316C82.1128 65.9316 82.3 65.8649 82.4741 65.7314L81.6978 64.8159L81.6221 64.8696C81.4268 65.0177 81.3291 65.187 81.3291 65.3774C81.3291 65.5418 81.382 65.6753 81.4878 65.7778C81.5936 65.8804 81.7352 65.9316 81.9126 65.9316ZM81.5854 63.6416C81.5854 63.7783 81.6693 63.95 81.8369 64.1567L82.1079 63.9712L82.1836 63.9102C82.2845 63.8206 82.335 63.7059 82.335 63.5659C82.335 63.4731 82.3 63.3942 82.23 63.3291C82.16 63.2624 82.0713 63.229 81.9639 63.229C81.8483 63.229 81.7563 63.2681 81.688 63.3462C81.6196 63.4243 81.5854 63.5228 81.5854 63.6416ZM88.043 65.1992C88.0072 65.5785 87.8672 65.8747 87.623 66.0879C87.3789 66.2995 87.0542 66.4053 86.6489 66.4053C86.3657 66.4053 86.1159 66.3385 85.8994 66.2051C85.6846 66.07 85.5186 65.8787 85.4014 65.6313C85.2842 65.384 85.2231 65.0967 85.2183 64.7695V64.4375C85.2183 64.1022 85.2777 63.8068 85.3965 63.5513C85.5153 63.2957 85.6854 63.0988 85.9067 62.9604C86.1297 62.8221 86.3869 62.7529 86.6782 62.7529C87.0705 62.7529 87.3862 62.8595 87.6255 63.0728C87.8647 63.286 88.0039 63.5871 88.043 63.9761H87.4277C87.3984 63.7205 87.3236 63.5366 87.2031 63.4243C87.0843 63.3104 86.9093 63.2534 86.6782 63.2534C86.4097 63.2534 86.203 63.3519 86.0581 63.5488C85.9149 63.7441 85.8416 64.0314 85.8384 64.4106V64.7256C85.8384 65.1097 85.9067 65.4027 86.0435 65.6045C86.1818 65.8063 86.3836 65.9072 86.6489 65.9072C86.8914 65.9072 87.0737 65.8527 87.1958 65.7437C87.3179 65.6346 87.3952 65.4531 87.4277 65.1992H88.043ZM91.4341 64.6719C91.4341 65.0202 91.3739 65.3262 91.2534 65.5898C91.133 65.8519 90.9604 66.0537 90.7358 66.1953C90.5129 66.3353 90.2557 66.4053 89.9644 66.4053C89.6763 66.4053 89.4191 66.3353 89.1929 66.1953C88.9683 66.0537 88.7941 65.8527 88.6704 65.5923C88.5483 65.3319 88.4865 65.0316 88.4849 64.6914V64.4912C88.4849 64.1445 88.5459 63.8385 88.668 63.5732C88.7917 63.3079 88.965 63.1053 89.188 62.9653C89.4126 62.8237 89.6698 62.7529 89.9595 62.7529C90.2492 62.7529 90.5055 62.8229 90.7285 62.9629C90.9531 63.1012 91.1265 63.3014 91.2485 63.5635C91.3706 63.8239 91.4325 64.1274 91.4341 64.4741V64.6719ZM90.8164 64.4863C90.8164 64.0924 90.7415 63.7905 90.5918 63.5806C90.4437 63.3706 90.2329 63.2656 89.9595 63.2656C89.6925 63.2656 89.4834 63.3706 89.332 63.5806C89.1823 63.7889 89.1058 64.0843 89.1025 64.4668V64.6719C89.1025 65.0625 89.1782 65.3644 89.3296 65.5776C89.4826 65.7909 89.6942 65.8975 89.9644 65.8975C90.2378 65.8975 90.4478 65.7933 90.5942 65.585C90.7424 65.3766 90.8164 65.0723 90.8164 64.6719V64.4863Z" fill="#AFB1B8"/>
</svg>

<svg width="175" height="90" fill="none" xmlns="http://www.w3.org/2000/svg"><rect x=".5" y=".5" width="174" height="89" rx="3.5" stroke="#AFB1B8"/><path d="M71 21l7.308 6.703h20.384v18.696L106 53.102V21H71z" fill="#AFB1B8"/><path d="M65 27.42v31.185h34V46.209L78.523 27.428 65 27.42zm27.523 26.623H70.38V33.07h1.565v19.553h20.578v1.42zM74.791 64.486l.818-1.684h.684L75.1 65.048v1.308h-.62v-1.308l-1.194-2.246h.686l.818 1.684zm3.51 1.043h-1.376l-.288.827h-.642l1.342-3.554h.555l1.345 3.554h-.645l-.29-.827zm-1.203-.498h1.03l-.515-1.475-.515 1.475zm3.638.366c0-.164.045-.315.134-.452.09-.138.266-.302.53-.49a2.268 2.268 0 01-.29-.445.877.877 0 01-.081-.354c0-.278.084-.498.254-.659.169-.163.397-.244.683-.244.26 0 .47.076.635.23.166.15.25.339.25.563a.785.785 0 01-.113.41 1.34 1.34 0 01-.369.372l-.242.175.687.811c.099-.195.148-.413.148-.652h.516c0 .438-.103.797-.308 1.077l.522.617h-.688l-.2-.236a1.47 1.47 0 01-.909.285c-.351 0-.633-.093-.844-.278a.932.932 0 01-.315-.73zm1.177.535c.2 0 .387-.067.561-.2l-.776-.916-.076.054c-.195.148-.293.317-.293.507 0 .165.053.298.159.4a.584.584 0 00.425.155zm-.328-2.29c0 .136.084.308.252.515l.27-.186.077-.06a.44.44 0 00.151-.345.311.311 0 00-.105-.237.37.37 0 00-.266-.1.348.348 0 00-.276.117.432.432 0 00-.103.296zm6.458 1.557c-.036.38-.176.676-.42.889-.244.212-.569.317-.974.317a1.4 1.4 0 01-.75-.2 1.333 1.333 0 01-.498-.574 2.064 2.064 0 01-.183-.862v-.332c0-.335.06-.63.178-.886.12-.255.29-.452.51-.59.224-.139.48-.208.772-.208.392 0 .708.106.948.32.239.213.378.514.417.903h-.615c-.03-.255-.104-.44-.225-.552-.119-.114-.294-.17-.525-.17-.268 0-.475.098-.62.295-.143.195-.216.482-.22.862v.315c0 .384.069.677.206.879.138.201.34.302.605.302.242 0 .425-.054.547-.163.122-.11.2-.29.232-.545h.615zm3.391-.527c0 .348-.06.654-.18.918-.121.262-.294.464-.518.605-.223.14-.48.21-.772.21-.288 0-.545-.07-.771-.21a1.406 1.406 0 01-.523-.603 2.124 2.124 0 01-.185-.9v-.2c0-.348.06-.654.183-.919.124-.265.297-.468.52-.608.225-.141.482-.212.772-.212.29 0 .546.07.769.21.224.138.397.338.52.6.122.26.184.564.185.911v.198zm-.618-.186c0-.394-.075-.696-.224-.905a.728.728 0 00-.632-.315.73.73 0 00-.628.315c-.15.208-.226.503-.23.886v.205c0 .39.076.692.228.906.153.213.364.32.634.32.274 0 .484-.105.63-.313.148-.208.222-.513.222-.913v-.186z" fill="#AFB1B8"/></svg>
